X:17039
T:The Munster Lass Jig
M:6/8
L:1/8
K:F
A/G/|FAc fef|gfe fcA|FAc fed|cBA G2A|!
FAc fef|gfe fga|gfe fed|cAG F2:|!
|:f/g/|agf gfe|fcA F2f/g/|agf gec|BAB G2f/g/|!
agf gfe|fed cBA|Bdg Acf|ede f2:|!
